X:1
T:Devil Among the Tailors
N:from the fiddle playing of Sally Sloane
Z:Ian Hayden, 2017
L:1/8
M:4/4
K:D
A2|dcdA dcdA|dcdA B3A|GBEB GBEB|GA edcB A2|
|dcdA dcdA|dcdA B4|AdcB AGFE|A,2 D2D2 A2|]
[|FADA FADA|FAdc BAGF|GBEB GBEB|GB (3dcB AGFD|
|FADA FADA|FAdc BAGF|AdcB AGFE|A,2 D2 D4|]
